swiss/communes/0231.svg

<?xml version="1.0" encoding="UTF-8" standalone="no"?>
<!-- Created with Inkscape (http://www.inkscape.org/) -->
<svg
   xmlns:svg="http://www.w3.org/2000/svg"
   xmlns="http://www.w3.org/2000/svg"
   version="1.0"
   width="219.12462"
   height="256.67041"
   id="svg2780">
  <defs
     id="defs2782" />
  <g
     transform="translate(-12.369695,-820.43984)"
     id="layer1">
    <path
       d="M 13.369695,821.43984 L 17.317411,987.27171 C 20.137201,1105.7231 223.7268,1105.7231 226.5466,987.27171 L 230.49432,821.43984 L 13.369695,821.43984 z "
       style="fill:#1e522f;fill-opacity:1;fill-rule:evenodd;stroke:#000000;stroke-width:2;stroke-linecap:butt;stroke-miterlimit:4;stroke-dashoffset:0;stroke-opacity:1"
       id="path3282" />
    <path
       d="M 96.382672,183.54144 L 154.27838,173.73255 L 179.55017,128.56632 C 175.18916,126.71619 168.05297,119.9324 165.27778,112.5319 C 162.44458,104.9767 144.75021,79.538021 114.88391,72.181573 C 85.058075,64.835091 46.032857,90.550662 40.87894,124.33746 C 35.725022,158.30045 75.414595,184.59865 96.382672,183.54144 z "
       transform="translate(0,804.33069)"
       style="opacity:1;color:#000000;fill:#ffffff;fill-opacity:1;fill-rule:evenodd;stroke:none;stroke-width:1px;stroke-linecap:round;stroke-linejoin:miter;marker:none;marker-start:none;marker-mid:none;marker-end:none;stroke-miterlimit:4;stroke-dasharray:none;stroke-dashoffset:0;stroke-opacity:1;visibility:visible;display:inline;overflow:visible;enable-background:accumulate"
       id="path6110" />
    <path
       d="M 189.72874,890.893 C 188.14153,884.86732 183.64923,871.83364 176.49966,850.18389 C 170.40731,848.81933 171.03356,842.71707 175.4359,841.22327 C 179.67991,839.78321 183.49396,844.59319 180.18373,848.56277 C 187.91746,862.54023 195.00681,885.2456 200.09859,887.64807"
       style="opacity:1;color:#000000;fill:#ffffff;fill-opacity:1;fill-rule:evenodd;stroke:#000000;stroke-width:1px;stroke-linecap:butt;stroke-linejoin:miter;marker:none;marker-start:none;marker-mid:none;marker-end:none;stroke-miterlimit:4;stroke-dasharray:none;stroke-dashoffset:0;stroke-opacity:1;visibility:visible;display:inline;overflow:visible;enable-background:accumulate"
       id="path6259" />
    <path
       d="M 204.36029,882.79254 C 206.78184,882.92809 211.80508,874.93493 213.57261,873.14632 C 211.59582,867.22425 217.0246,866.04373 219.44872,867.96138 C 221.90285,869.90277 219.84215,874.99796 216.19862,874.53556 C 213.89339,877.9904 210.06042,884.02087 208.69128,885.98648"
       style="opacity:1;color:#000000;fill:#ffffff;fill-opacity:1;fill-rule:evenodd;stroke:#000000;stroke-width:1px;stroke-linecap:butt;stroke-linejoin:miter;marker:none;marker-start:none;marker-mid:none;marker-end:none;stroke-miterlimit:4;stroke-dasharray:none;stroke-dashoffset:0;stroke-opacity:1;visibility:visible;display:inline;overflow:visible;enable-background:accumulate"
       id="path6263" />
    <path
       d="M 80.405164,180.62988 C 58.653292,182.52156 31.660827,187.77821 27.909024,204.92202 C 189.86713,233.84717 214.30355,178.71501 213.0555,82.570849 C 204.18979,73.657516 178.95677,78.690011 179.1785,93.2056 C 179.40017,107.71743 177.52105,118.69352 175.13442,126.22408 C 172.69699,133.91493 161.26235,157.43459 120.62753,172.28449"
       transform="translate(0,804.33069)"
       style="fill:#ffffff;fill-opacity:1;fill-rule:evenodd;stroke:#000000;stroke-width:1px;stroke-linecap:butt;stroke-linejoin:miter;stroke-opacity:1"
       id="path5284" />
    <path
       d="M 180.60738,91.387627 C 178.79392,84.846263 169.91778,67.952718 159.81551,47.513248 C 153.59231,47.012673 152.48135,40.833606 156.24056,38.612177 C 159.86838,36.46839 165.88692,40.477335 163.16335,44.870213 C 171.55153,57.803187 182.98295,81.790505 188.36029,83.458522"
       transform="translate(0,804.33069)"
       style="opacity:1;color:#000000;fill:#ffffff;fill-opacity:1;fill-rule:evenodd;stroke:#000000;stroke-width:1px;stroke-linecap:round;stroke-linejoin:miter;marker:none;marker-start:none;marker-mid:none;marker-end:none;stroke-miterlimit:4;stroke-dasharray:none;stroke-dashoffset:0;stroke-opacity:1;visibility:visible;display:inline;overflow:visible;enable-background:accumulate"
       id="path6257" />
    <path
       d="M 175.13442,126.22408 C 162.93288,116.83097 160.00125,86.758358 123.16542,74.472203 C 86.382137,62.203574 46.032857,90.550662 40.87894,124.33746 C 35.725022,158.30045 72.039834,178.31396 80.405164,180.62988 C 88.737656,182.9367 103.08872,186.35585 120.62753,172.28449 C 138.24224,158.15223 145.80716,125.27285 116.41724,109.51357 C 87.175939,93.833976 68.296315,118.66102 68.895109,132.61897 C 69.494108,146.5817 83.697598,157.81587 94.092042,157.6397 C 104.48798,157.4635 109.68595,146.84731 110.12645,139.49087 C 110.56696,132.13442 99.994819,123.85291 93.563434,127.6853 C 87.261604,131.4405 90.656097,141.03263 98.320898,138.25745"
       transform="translate(0,804.33069)"
       style="opacity:1;color:#000000;fill:none;fill-opacity:1;fill-rule:evenodd;stroke:#000000;stroke-width:1px;stroke-linecap:round;stroke-linejoin:miter;marker:none;marker-start:none;marker-mid:none;marker-end:none;stroke-miterlimit:4;stroke-dasharray:none;stroke-dashoffset:0;stroke-opacity:1;visibility:visible;display:inline;overflow:visible;enable-background:accumulate"
       id="path6255" />
    <path
       d="M 194.94244,885.29006 C 197.77567,881.65077 193.09593,886.51762 205.5033,867.3895 C 202.75362,861.78433 208.01832,859.21249 211.20213,861.01292 C 214.3589,862.79805 212.74636,868.59649 209.07372,868.62464 C 205.07086,877.17577 201.61648,882.38244 201.68448,885.67668"
       style="opacity:1;color:#000000;fill:#ffffff;fill-opacity:1;fill-rule:evenodd;stroke:#000000;stroke-width:1px;stroke-linecap:round;stroke-linejoin:miter;marker:none;marker-start:none;marker-mid:none;marker-end:none;stroke-miterlimit:4;stroke-dasharray:none;stroke-dashoffset:0;stroke-opacity:1;visibility:visible;display:inline;overflow:visible;enable-background:accumulate"
       id="path6261" />
  </g>
</svg>

<svg xmlns="http://www.w3.org/2000/svg" version="1.0" width="219.125" height="256.67"><path d="m13.37 821.44 3.947 165.832c2.82 118.451 206.41 118.451 209.23 0l3.947-165.832H13.37z" style="fill:#1e522f;fill-opacity:1;fill-rule:evenodd;stroke:#000;stroke-width:2;stroke-linecap:butt;stroke-miterlimit:4;stroke-dashoffset:0;stroke-opacity:1" transform="translate(-12.37 -820.44)"/><path d="m96.383 183.541 57.895-9.808 25.272-45.167c-4.36-1.85-11.497-8.634-14.272-16.034-2.833-7.555-20.528-32.994-50.394-40.35-29.826-7.347-68.851 18.369-74.005 52.155-5.154 33.963 34.536 60.262 55.504 59.204z" transform="translate(-12.37 -16.11)" style="opacity:1;color:#000;fill:#fff;fill-opacity:1;fill-rule:evenodd;stroke:none;stroke-width:1px;stroke-linecap:round;stroke-linejoin:miter;marker:none;marker-start:none;marker-mid:none;marker-end:none;stroke-miterlimit:4;stroke-dasharray:none;stroke-dashoffset:0;stroke-opacity:1;visibility:visible;display:inline;overflow:visible;enable-background:accumulate"/><path d="M189.729 890.893c-1.587-6.026-6.08-19.06-13.23-40.71-6.092-1.364-5.465-7.466-1.063-8.96 4.244-1.44 8.058 3.37 4.748 7.34 7.733 13.977 14.823 36.683 19.915 39.085" style="opacity:1;color:#000;fill:#fff;fill-opacity:1;fill-rule:evenodd;stroke:#000;stroke-width:1px;stroke-linecap:butt;stroke-linejoin:miter;marker:none;marker-start:none;marker-mid:none;marker-end:none;stroke-miterlimit:4;stroke-dasharray:none;stroke-dashoffset:0;stroke-opacity:1;visibility:visible;display:inline;overflow:visible;enable-background:accumulate" transform="translate(-12.37 -820.44)"/><path d="M204.36 882.793c2.422.135 7.445-7.858 9.213-9.647-1.977-5.922 3.452-7.102 5.876-5.185 2.454 1.942.393 7.037-3.25 6.575-2.306 3.454-6.139 9.485-7.508 11.45" style="opacity:1;color:#000;fill:#fff;fill-opacity:1;fill-rule:evenodd;stroke:#000;stroke-width:1px;stroke-linecap:butt;stroke-linejoin:miter;marker:none;marker-start:none;marker-mid:none;marker-end:none;stroke-miterlimit:4;stroke-dasharray:none;stroke-dashoffset:0;stroke-opacity:1;visibility:visible;display:inline;overflow:visible;enable-background:accumulate" transform="translate(-12.37 -820.44)"/><path d="M80.405 180.63c-21.752 1.892-48.744 7.148-52.496 24.292 161.958 28.925 186.395-26.207 185.147-122.351-8.866-8.913-34.1-3.881-33.877 10.635.221 14.511-1.658 25.488-4.045 33.018-2.437 7.69-13.872 31.21-54.506 46.06" transform="translate(-12.37 -16.11)" style="fill:#fff;fill-opacity:1;fill-rule:evenodd;stroke:#000;stroke-width:1px;stroke-linecap:butt;stroke-linejoin:miter;stroke-opacity:1"/><path d="M180.607 91.388c-1.813-6.542-10.69-23.435-20.791-43.875-6.224-.5-7.335-6.68-3.575-8.9 3.627-2.145 9.646 1.864 6.922 6.257 8.389 12.933 19.82 36.92 25.197 38.589" transform="translate(-12.37 -16.11)" style="opacity:1;color:#000;fill:#fff;fill-opacity:1;fill-rule:evenodd;stroke:#000;stroke-width:1px;stroke-linecap:round;stroke-linejoin:miter;marker:none;marker-start:none;marker-mid:none;marker-end:none;stroke-miterlimit:4;stroke-dasharray:none;stroke-dashoffset:0;stroke-opacity:1;visibility:visible;display:inline;overflow:visible;enable-background:accumulate"/><path d="M175.134 126.224c-12.201-9.393-15.133-39.466-51.969-51.752-36.783-12.268-77.132 16.079-82.286 49.865-5.154 33.963 31.16 53.977 39.526 56.293 8.333 2.307 22.684 5.726 40.223-8.346 17.614-14.132 25.18-47.011-4.21-62.77-29.242-15.68-48.122 9.147-47.523 23.105.6 13.963 14.803 25.197 25.197 25.02 10.396-.175 15.594-10.792 16.034-18.148.441-7.357-10.131-15.638-16.563-11.806-6.301 3.755-2.907 13.348 4.758 10.572" transform="translate(-12.37 -16.11)" style="opacity:1;color:#000;fill:none;fill-opacity:1;fill-rule:evenodd;stroke:#000;stroke-width:1px;stroke-linecap:round;stroke-linejoin:miter;marker:none;marker-start:none;marker-mid:none;marker-end:none;stroke-miterlimit:4;stroke-dasharray:none;stroke-dashoffset:0;stroke-opacity:1;visibility:visible;display:inline;overflow:visible;enable-background:accumulate"/><path d="M194.942 885.29c2.834-3.64-1.846 1.228 10.561-17.9-2.75-5.606 2.515-8.178 5.7-6.377 3.156 1.785 1.543 7.583-2.13 7.612-4.002 8.55-7.457 13.757-7.389 17.052" style="opacity:1;color:#000;fill:#fff;fill-opacity:1;fill-rule:evenodd;stroke:#000;stroke-width:1px;stroke-linecap:round;stroke-linejoin:miter;marker:none;marker-start:none;marker-mid:none;marker-end:none;stroke-miterlimit:4;stroke-dasharray:none;stroke-dashoffset:0;stroke-opacity:1;visibility:visible;display:inline;overflow:visible;enable-background:accumulate" transform="translate(-12.37 -820.44)"/></svg>
